images/behance_icon.svg

<svg width="44" height="44" viewBox="0 0 44 44" fill="none" xmlns="http://www.w3.org/2000/svg">
<path d="M18.3056 24.6743C20.4035 23.6715 21.4986 22.1542 21.4986 19.7924C21.4986 15.1347 18.0285 14 14.024 14H3V37.3806H14.334C18.5826 37.3806 22.574 35.342 22.574 30.592C22.574 27.6562 21.1819 25.4858 18.3056 24.6743ZM8.13924 17.9913H12.9618C14.8156 17.9913 16.4847 18.5125 16.4847 20.6632C16.4847 22.649 15.1851 23.4472 13.351 23.4472H8.13924V17.9913ZM13.6347 33.409H8.13924V26.9701H13.7403C16.0031 26.9701 17.4347 27.9135 17.4347 30.3083C17.4347 32.6701 15.726 33.409 13.6347 33.409ZM37.2858 17.5295H27.8056V15.2271H37.2858V17.5295ZM41 29.1604C41 24.1531 38.0708 19.9771 32.7601 19.9771C27.601 19.9771 24.0979 23.8562 24.0979 28.9361C24.0979 34.2073 27.4163 37.8226 32.7601 37.8226C36.8042 37.8226 39.4233 36.0017 40.6833 32.1292H36.5799C36.1378 33.574 34.317 34.3392 32.9052 34.3392C30.1806 34.3392 28.749 32.7427 28.749 30.0312H40.9604C40.9802 29.7542 41 29.4573 41 29.1604ZM28.7556 27.1021C28.9073 24.8788 30.3851 23.4868 32.6149 23.4868C34.9503 23.4868 36.1247 24.859 36.3226 27.1021H28.7556Z" fill="#F5F3ED"/>
</svg>

<?xml version="1.0" encoding="utf-8"?>
<!-- Generator: Adobe Illustrator 27.5.0, SVG Export Plug-In . SVG Version: 6.00 Build 0)  -->
<svg version="1.1" id="Layer_1" xmlns="http://www.w3.org/2000/svg" xmlns:xlink="http://www.w3.org/1999/xlink" x="0px" y="0px"
	 viewBox="0 0 44 44" style="enable-background:new 0 0 44 44;" xml:space="preserve">
<path style="fill:#1C3E68;" d="M18.3,24.7c2.1-1,3.2-2.5,3.2-4.9c0-4.7-3.5-5.8-7.5-5.8H3v23.4h11.3c4.2,0,8.2-2,8.2-6.8
	C22.6,27.7,21.2,25.5,18.3,24.7z M8.1,18H13c1.9,0,3.5,0.5,3.5,2.7c0,2-1.3,2.8-3.1,2.8H8.1V18z M13.6,33.4H8.1V27h5.6
	c2.3,0,3.7,0.9,3.7,3.3C17.4,32.7,15.7,33.4,13.6,33.4z M37.3,17.5h-9.5v-2.3h9.5V17.5z M41,29.2c0-5-2.9-9.2-8.2-9.2
	c-5.2,0-8.7,3.9-8.7,9c0,5.3,3.3,8.9,8.7,8.9c4,0,6.7-1.8,7.9-5.7h-4.1c-0.4,1.4-2.3,2.2-3.7,2.2c-2.7,0-4.2-1.6-4.2-4.3H41
	C41,29.8,41,29.5,41,29.2z M28.8,27.1c0.2-2.2,1.6-3.6,3.9-3.6c2.3,0,3.5,1.4,3.7,3.6H28.8z"/>
</svg>
